X: 50
T:Marin congo
R:Marin congo
O:France
A:Languedoc
C:Trad.
M:2/4
L:1/8
Q:1/4=106
K:Cmaj
"C"cd ed/2c/2|"G"dd G2|"C"cd eg| [1 g/2f/2e/2d/2 ec :| [2 g/2f/2e/2d/2 c2|:
"C"gg/2f/2 ee/2f/2|ga g2|cd eg| [1 g/2f/2e/2d/2 ec:| [2 g/2f/2e/2d/2 c2|]
<end>
<start>
